polaris-icons/icons/GaugeMinor.svg

<svg
   viewBox="0 0 20 20"

   xmlns="http://www.w3.org/2000/svg">
  <path
     d="M 13.611328 4.1152344 C 13.221638 4.1133823 12.8507 4.3419341 12.6875 4.7226562 L 10.332031 10.214844 C 10.222831 10.202744 10.1125 10.197266 10 10.197266 C 8.3431517 10.197266 7 11.540467 7 13.197266 C 7 14.854164 8.3431517 16.197266 10 16.197266 C 11.656898 16.197266 13 14.854164 13 13.197266 C 13 12.375466 12.670065 11.62969 12.134766 11.087891 L 14.525391 5.5097656 C 14.74299 5.0021361 14.507599 4.4148154 14 4.1972656 C 13.8731 4.1428757 13.741225 4.1158517 13.611328 4.1152344 z M 10 4.1972656 C 5.9197041 4.1972656 2.5537095 7.2519527 2.0625 11.199219 C 1.9942901 11.747318 2.4477206 12.197266 3 12.197266 C 3.5522794 12.197266 3.9910413 11.745871 4.0820312 11.201172 C 4.5563808 8.3614147 7.025543 6.1972656 10 6.1972656 C 10.3183 6.1972656 10.630647 6.2217813 10.935547 6.2695312 L 11.742188 4.3867188 C 11.181288 4.2621289 10.598399 4.1972656 10 4.1972656 z M 15.310547 6.2148438 L 14.464844 8.1894531 C 15.209143 9.0180323 15.726469 10.054073 15.917969 11.201172 C 16.008969 11.745971 16.447701 12.197266 17 12.197266 C 17.552299 12.197266 18.0057 11.747318 17.9375 11.199219 C 17.6918 9.2236407 16.725845 7.4722525 15.310547 6.2148438 z M 10 12.197266 C 10.552299 12.197266 11 12.644966 11 13.197266 C 11 13.749565 10.552299 14.197266 10 14.197266 C 9.4477206 14.197266 9 13.749565 9 13.197266 C 9 12.644966 9.4477206 12.197266 10 12.197266 z "    fill="#5C5F62" />
</svg>

<svg viewBox="0 0 20 20" xmlns="http://www.w3.org/2000/svg"><path d="M13.611 4.115a1 1 0 0 0-.924.608l-2.355 5.492a3 3 0 1 0 1.803.873l2.39-5.578a1 1 0 0 0-.914-1.395zm-3.611.082a8 8 0 0 0-7.938 7.002c-.068.548.386.998.938.998.552 0 .991-.451 1.082-.996a6.002 6.002 0 0 1 6.854-4.931l.806-1.883a8.026 8.026 0 0 0-1.742-.19zm5.31 2.018-.845 1.974a5.977 5.977 0 0 1 1.453 3.012c.091.545.53.996 1.082.996s1.006-.45.938-.998a7.982 7.982 0 0 0-2.627-4.984zm-5.31 5.982a1 1 0 1 1 0 2 1 1 0 0 1 0-2z" fill="#5C5F62"/></svg>
